common/resources/fonts/svg/color.svg

<?xml version="1.0" encoding="UTF-8" standalone="no"?>
<svg width="1024px" height="1024px" viewBox="0 0 1024 1024" version="1.1" xmlns="http://www.w3.org/2000/svg" xmlns:xlink="http://www.w3.org/1999/xlink">
    <!-- Generator: Sketch 40.3 (33839) - http://www.bohemiancoding.com/sketch -->
    <title>color</title>
    <desc>Created with Sketch.</desc>
    <defs></defs>
    <g id="Page-1" stroke="none" stroke-width="1" fill="none" fill-rule="evenodd">
        <g id="color" fill="#000000">
            <path d="M511.689788,937.08 C353.429788,937.08 224.689788,808.34 224.689788,650.08 C224.689788,508.794 433.543788,199.08 511.689788,85.92 C590.245788,199.654 798.689788,508.917 798.689788,650.08 C798.689788,808.34 669.949788,937.08 511.689788,937.08 L511.689788,937.08 Z M511.689788,231.593 C421.325788,369.517 306.689788,570.786 306.689788,650.08 C306.689788,763.117 398.652788,855.08 511.689788,855.08 C624.726788,855.08 716.689788,763.117 716.689788,650.08 C716.689788,570.786 602.053788,369.476 511.689788,231.593 L511.689788,231.593 Z" id="Shape"></path>
        </g>
    </g>
</svg>

<svg width="1024" height="1024" viewBox="0 0 1024 1024">
    <path d="M511.69 937.08c-158.26 0-287-128.74-287-287 0-141.286 208.854-451 287-564.16 78.556 113.734 287 422.997 287 564.16 0 158.26-128.74 287-287 287zm0-705.487c-90.364 137.924-205 339.193-205 418.487 0 113.037 91.963 205 205 205s205-91.963 205-205c0-79.294-114.636-280.604-205-418.487z" fill-rule="evenodd"/>
</svg>
